public/avatar/hat/110.svg

<svg xmlns:xlink="http://www.w3.org/1999/xlink" height="92.9" width="100.7" xmlns="http://www.w3.org/2000/svg"><use height="32.2" transform="translate(22.35 44.75)" width="34.8" xlink:href="#a"/><defs><g id="a"><path d="M9.7 7.8q-.95-1.45-1.4-2.9 3.9-4.5 9-4.5 1.2 1.5 1.2 2.6l-2.3.5q-3.85 1.05-6.5 4.3" fill="#491508" fill-rule="evenodd" transform="translate(16.3 5)"/><path d="M14.8-5q1.5 1.2 1.8 2.3l-2 1Q11.1.5 9.3 4.2L7.2 1.8Q9.95-3.65 14.8-5" fill="#762514" fill-rule="evenodd" transform="translate(16.3 5)"/><path d="m2-4 4.2 1.9 1.7.8.8.3.9.5 2.1 2 .3.5Q10.2 1.2 7.4.7L3.7.5H-.6q-2.6 0-4.6-2.3l1.1.4q4 .9 7.6-.6l-1.6.1q-2.7.15-4.4-2.3l2.3-.1L2-4" fill="#454545" fill-rule="evenodd" transform="translate(16.3 5)"/><path d="M1.9-1.9 3.5-2q-3.6 1.5-7.6.6l-1.1-.4Q-3.2.5-.6.5h4.3l3.7.2q2.8.5 4.6 1.3 1.3 2.4 2.3 6.2l-1 .7-1.2.7-.4.1q-11.75 1.75-24.5.1l-1-.3-1.5-1q.5-2.7 1.3-4.2l1.5-2.3q2-2.5 3.7-2.9 1.9-.7 2.4-1.1 1.55-1.3 3.9-2.2 1.7 2.45 4.4 2.3" fill="#6f6f6f" fill-rule="evenodd" transform="translate(16.3 5)"/><path d="m5.65 5.55 2.6.15 3.05.25q2.25 0 2.3.35.15 1.55-2.8 2-5.95 1-7-.8-1.1-1.85 1.85-1.95" fill="#454545" fill-rule="evenodd" transform="translate(16.3 5)"/><path d="m11.4 11 .7-1.4 1.2-.7 1-.7.3 1.2-.9 2.8-.5 1.3-.5 1.2-.6 1.3-.7 1.1-.8 1-.9 1 1.6-1 3.1-2.5-1.1 2.1q-.45 1.05-1.3 1.9l-.8.8-1.1.4-1.2.1-1.4-.3.8 1.5.3.7.1.3-8 3.6-1.4-.4-4.1-1.2-1.8-.7-3.6-2.9-.8-.8-.8-.8-.6-1-1-2.2 1 1.4 1 .9 1 .7 1 .4-.8-1-.9-1.1-.8-1.2-.4-.6-.4-.6-.6-1.3-.4-.6-1.5-2.7-.4-.8.3-1.7 1.5 1 1 .3.5.9 1.3 2.4 2.6 4.3q.55.55.8 1.2l.8 1 1.6 1.9 2.3 1.9 1.5.8 1.3.5.6-.3q.95-.15 1.7-.9l1.5-1.2L5.1 21l1.4-1.4 1.6-2.4 1-1.6 2.3-4.6" fill="#6f6f6f" fill-rule="evenodd" transform="translate(16.3 5)"/><path d="m-15.6 10.2.4.8 1.5 2.7.4.6.6 1.3.4.6.4.6.8 1.2.9 1.1.8 1-1-.4-1-.7-1-.9-1-1.4 1 2.2.6 1 .8.8.8.8 3.6 2.9q-2.9-1.25-4.8-2.3-4-2.05-4.3-5.8-.25-2.85.1-6.1" fill="#454545" fill-rule="evenodd" transform="translate(16.3 5)"/><path d="m11.7 9.7.4-.1q-5.85 3-12.4 3-6.75.15-12.5-2.8 12.75 1.65 24.5-.1" fill-opacity=".4" fill-rule="evenodd" transform="translate(16.3 5)"/><path d="m13.7 12.2.9-2.8.2 1.2.2 1.1.3 1.9v1.6l-.1 1.3-.3 1.4-.4 1.2-1.3 1.5-1.5.9-1.5.7-1.5.9-.1-.3-.3-.7-.8-1.5 1.4.3 1.2-.1 1.1-.4.8-.8q.85-.85 1.3-1.9l1.1-2.1-3.1 2.5-1.6 1 .9-1 .8-1 .7-1.1.6-1.3.5-1.2.5-1.3" fill="#454545" fill-rule="evenodd" transform="translate(16.3 5)"/><path d="m14.3 8.2-1 .7-1.2.7-.4.1q-11.75 1.75-24.5.1l-1-.3-1.5-1" fill="none" stroke="#000" stroke-linecap="round" stroke-linejoin="round" transform="translate(16.3 5)"/><path d="m11.7 1.5-.7-1Q10.05-.45 8.7-1l-.8-.3-1.7-.8Q4-3.55 2.1-4.2L.4-4.3l-2.9.1q-2.35.9-3.9 2.2-.5.4-2.4 1.1-1.7.4-3.7 2.9L-14 4.3q-.8 1.5-1.3 4.2l-.3 1.7q-.35 3.25-.1 6.1.3 3.75 4.3 5.8 1.9 1.05 4.8 2.3l1.8.7 4.1 1.2 1.4.4 8-3 1.5-.95 1.6-.8 1.65-1.25q.6-.5 1.05-1.6l.4-1.2.3-1.4.1-1.3v-1.6l-.3-1.9-.2-1.1-.2-1.2-.3-1.2Q13.3 4.4 12 2" fill="none" stroke="#000" stroke-linecap="round" stroke-linejoin="round" transform="translate(16.3 5)"/><path d="m-12.8 9.8.5.9 1.3 2.4 2.6 4.3q.55.55.8 1.2l.8 1 1.6 1.9 2.3 1.9 1.5.8 1.3.5.6-.3q.95-.15 1.7-.9l1.5-1.2L5.1 21l1.4-1.4 1.6-2.4 1-1.6 2.3-4.6.7-1.4" fill="none" stroke="#a8a8a8" stroke-linecap="round" stroke-linejoin="round" transform="translate(16.3 5)"/><path d="M8.7 6.4 10 2q1.9.45 2.8 1.2l1.2 4-5.3-.8" fill="#762514" fill-rule="evenodd" transform="translate(16.3 5)"/><path d="m6.3 4-.7 2-1.7-.1q.55-1.55 1.5-3.2.4-.55.4-1.3l1.5.2q-.75 1.35-1 2.4" fill="#bc2e1f" fill-rule="evenodd" transform="translate(16.3 5)"/><path d="m7.3 1.6 1.1.1-.2 1.1L7.7 4l-.8 2.1L5.6 6l.7-2q.25-1.05 1-2.4" fill="#ff3d2b" fill-rule="evenodd" transform="translate(16.3 5)"/><path d="m8.2 2.8.2-1.1L10 2 8.7 6.4l-1.8-.3.8-2.1.5-1.2" fill="#bc2e1f" fill-rule="evenodd" transform="translate(16.3 5)"/><path d="M5.8 1.4q0 .75-.4 1.3-.95 1.65-1.5 3.2l-4.3-.2-7.4.6v-.1q.6-2.8 2.2-4.8l4.9-.2h.3l6.2.2m-12.9.2q0 .45-.4 1l-.5.8q-.8 1.45-.8 3.1l-.7.1-.7.2.1-1q.5-2.45 1.7-4l1.3-.2" fill="#ff3d2b" fill-rule="evenodd" transform="translate(16.3 5)"/><path d="M-5.6 1.4q-1.6 2-2.2 4.8v.1l-1 .2q0-1.65.8-3.1l.5-.8q.4-.55.4-1l1.5-.2m-4.5 4.4-.1 1-2.2.4q.75-1.95 1-3.3l.4-1 .1-.4 2.5-.7q-1.2 1.55-1.7 4" fill="#bc2e1f" fill-rule="evenodd" transform="translate(16.3 5)"/><path d="m-13.4 3.9 2.5-1.4-.1.4-.4 1q-.25 1.35-1 3.3l-2.6.6 1.3-3.6v-.1l.2-.1.1-.1" fill="#762514" fill-rule="evenodd" transform="translate(16.3 5)"/><path d="M8.05.75q.85.75-.2 4.3Q6.9 8.3 6.2 8.9l-6.4.45-6.55-.45q-.7-.6-1.65-3.85-1-3.55-.15-4.3.85-.8 8.3-.7l8.3.7" fill="#040f16" fill-rule="evenodd" transform="translate(16.3 5)"/><path d="M7.15 1.55q.35.6-.5 3.3L5.5 7.8l-5.45.3-5.9-.2q-.75-.15-1.5-3.15-.8-3.05-.15-3.45L-.6.75q7.2 0 7.75.8" fill="#7399a9" fill-rule="evenodd" transform="translate(16.3 5)"/><path d="m.75 8.1.45-1.6 1.5-.4 1.6-1.65-.4 2.3q-.65 1.05-1.5 1.3L.75 8.1" fill="#577380" fill-rule="evenodd" transform="translate(16.3 5)"/><path d="M3.3 7.6q1.5-.9 1.85-1.85.35-.85.8-1 .45-.2.35.8-.15 2-.8 2.25l-2.2-.2" fill="#577380" fill-rule="evenodd" transform="translate(16.3 5)"/><path d="M.25 4.9q.9.65.9 1.5-.3 2.25-1.6 2-4.8-.75-4.15-4.6Q-3.9 0 1.15.5 0 1-.55 1.45q-1.6 1-.95 1.9L.25 4.9" fill="#0e1a1d" fill-rule="evenodd" transform="translate(16.3 5)"/><path d="M2.05 2.1q.8.55-.1 1.05-1.1.3-1.5-.2-.55-.55.2-1.1.6-.35 1.4.25" fill="#0e1a1d" fill-rule="evenodd" transform="translate(16.3 5)"/><path d="M-3.1 6.55q-.55-.35.45-1.05.6-.6 1.5.2.25.15.3.65.05.5-.3.75-.95.5-1.95-.55" fill="#7399a9" fill-rule="evenodd" transform="translate(16.3 5)"/><path d="m-7.6 3.65-.25-1.15q-.1-1.15.55-1.35L-2.8.7l-.95.15q-.4.05-.9.4l-2.2 1.2-.75 1.2" fill="#dae8ee" fill-rule="evenodd" transform="translate(16.3 5)"/><path d="M1.7 8.25Q4.35 7.2 4.45 4.9 4.5 3.45 3.5 2L2.45.85l1.45.4q1.4.85 1.4 3.2 0 3.75-3.6 3.8" fill="#384248" fill-rule="evenodd" transform="translate(16.3 5)"/><path d="m0 4.15 1.15 1.6L1 7.25q-.15-1.3-.75-2-1.5-1.05-1.8-1.7Q-2.85.75 1.2.7-.3.75-1 2.2q-.25.6 1 1.95M-2.65 5.4v.35q0 .45 1.85.9.45.45-1 .45-.95.15-1.3-.3-.6-.8.45-1.4m6.4-4.3 1.1.6q1.05 1 1.05 3 0 2.3-2.25 3.05 1.65-1.4 1.65-3.5 0-1.3-.75-2.35l-.8-.8" fill="#dae8ee" fill-rule="evenodd" transform="translate(16.3 5)"/><path d="m-7.25 5.25-.15-.05-.2-1.1 2.25 2.35q1.3 1.2 2.8 1.5l-3.3-.05q-.5-.05-1-1.35l-.4-1.3" fill="#577380" fill-rule="evenodd" transform="translate(16.3 5)"/></g></defs></svg>

<?xml version="1.0" encoding="UTF-8" standalone="no"?>
<svg xmlns:xlink="http://www.w3.org/1999/xlink" height="92.9px" width="100.7px" xmlns="http://www.w3.org/2000/svg">
  <g transform="matrix(1.0, 0.0, 0.0, 1.0, 38.65, 49.75)">
    <use height="32.2" transform="matrix(1.0, 0.0, 0.0, 1.0, -16.3, -5.0)" width="34.8" xlink:href="#shape0"/>
  </g>
  <defs>
    <g id="shape0" transform="matrix(1.0, 0.0, 0.0, 1.0, 16.3, 5.0)">
      <path d="M9.7 7.8 Q8.75 6.35 8.3 4.9 12.2 0.4 17.3 0.4 18.5 1.9 18.5 3.0 L16.2 3.5 Q12.35 4.55 9.7 7.8" fill="#491508" fill-rule="evenodd" stroke="none"/>
      <path d="M14.8 -5.0 Q16.3 -3.8 16.6 -2.7 L14.6 -1.7 Q11.1 0.5 9.3 4.2 L7.2 1.8 Q9.95 -3.65 14.8 -5.0" fill="#762514" fill-rule="evenodd" stroke="none"/>
      <path d="M2.0 -4.0 L6.2 -2.1 7.9 -1.3 8.7 -1.0 9.6 -0.5 11.7 1.5 12.0 2.0 Q10.2 1.2 7.4 0.7 L3.7 0.5 -0.6 0.5 Q-3.2 0.5 -5.2 -1.8 L-4.1 -1.4 Q-0.1 -0.5 3.5 -2.0 L1.9 -1.9 Q-0.8 -1.75 -2.5 -4.2 L-0.2 -4.3 2.0 -4.0" fill="#454545" fill-rule="evenodd" stroke="none"/>
      <path d="M1.9 -1.9 L3.5 -2.0 Q-0.1 -0.5 -4.1 -1.4 L-5.2 -1.8 Q-3.2 0.5 -0.6 0.5 L3.7 0.5 7.4 0.7 Q10.2 1.2 12.0 2.0 13.3 4.4 14.3 8.2 L13.3 8.9 12.1 9.6 11.7 9.7 Q-0.05 11.45 -12.8 9.8 L-13.8 9.5 -15.3 8.5 Q-14.8 5.8 -14.0 4.3 L-12.5 2.0 Q-10.5 -0.5 -8.8 -0.9 -6.9 -1.6 -6.4 -2.0 -4.85 -3.3 -2.5 -4.2 -0.8 -1.75 1.9 -1.9" fill="#6f6f6f" fill-rule="evenodd" stroke="none"/>
      <path d="M5.65 5.55 L8.25 5.7 11.3 5.95 Q13.55 5.95 13.6 6.3 13.75 7.85 10.8 8.3 4.85 9.3 3.8 7.5 2.7 5.65 5.65 5.55" fill="#454545" fill-rule="evenodd" stroke="none"/>
      <path d="M11.4 11.0 L12.1 9.6 13.3 8.9 14.3 8.2 14.6 9.4 13.7 12.2 13.2 13.5 12.7 14.7 12.1 16.0 11.4 17.1 10.6 18.1 9.7 19.1 11.3 18.1 14.4 15.6 13.3 17.7 Q12.85 18.75 12.0 19.6 L11.2 20.4 10.1 20.8 8.9 20.9 7.5 20.6 8.3 22.1 8.6 22.8 8.7 23.1 0.7 26.7 -0.7 26.3 -4.8 25.1 -6.6 24.4 -10.2 21.5 -11.0 20.7 -11.8 19.9 -12.4 18.9 -13.4 16.7 -12.4 18.1 -11.4 19.0 -10.4 19.7 -9.4 20.1 -10.2 19.1 -11.1 18.0 -11.9 16.8 -12.3 16.2 -12.7 15.6 -13.3 14.3 -13.7 13.7 -15.2 11.0 -15.6 10.2 -15.3 8.5 -13.8 9.5 -12.8 9.8 -12.3 10.7 -11.0 13.1 -8.4 17.4 Q-7.85 17.95 -7.6 18.6 L-6.8 19.6 -5.2 21.5 -2.9 23.4 -1.4 24.2 -0.1 24.7 0.5 24.4 Q1.45 24.25 2.2 23.5 L3.7 22.3 5.1 21.0 6.5 19.6 8.1 17.2 9.1 15.6 11.4 11.0" fill="#6f6f6f" fill-rule="evenodd" stroke="none"/>
      <path d="M-15.6 10.2 L-15.2 11.0 -13.7 13.7 -13.3 14.3 -12.7 15.6 -12.3 16.2 -11.9 16.8 -11.1 18.0 -10.2 19.1 -9.4 20.1 -10.4 19.7 -11.4 19.0 -12.4 18.1 -13.4 16.7 -12.4 18.9 -11.8 19.9 -11.0 20.7 -10.2 21.5 -6.6 24.4 Q-9.5 23.15 -11.4 22.1 -15.4 20.05 -15.7 16.3 -15.95 13.45 -15.6 10.2" fill="#454545" fill-rule="evenodd" stroke="none"/>
      <path d="M11.7 9.7 L12.1 9.6 Q6.25 12.6 -0.3 12.6 -7.05 12.75 -12.8 9.8 -0.05 11.45 11.7 9.7" fill="#000000" fill-opacity="0.4" fill-rule="evenodd" stroke="none"/>
      <path d="M13.7 12.2 L14.6 9.4 14.8 10.6 15.0 11.7 15.3 13.6 15.3 15.2 15.2 16.5 14.9 17.9 14.5 19.1 13.2 20.6 11.7 21.5 10.2 22.2 8.7 23.1 8.6 22.8 8.3 22.1 7.5 20.6 8.9 20.9 10.1 20.8 11.2 20.4 12.0 19.6 Q12.85 18.75 13.3 17.7 L14.4 15.6 11.3 18.1 9.7 19.1 10.6 18.1 11.4 17.1 12.1 16.0 12.7 14.7 13.2 13.5 13.7 12.2" fill="#454545" fill-rule="evenodd" stroke="none"/>
      <path d="M14.3 8.2 L13.3 8.9 12.1 9.6 11.7 9.7 Q-0.05 11.45 -12.8 9.8 L-13.8 9.5 -15.3 8.5" fill="none" stroke="#000000" stroke-linecap="round" stroke-linejoin="round" stroke-width="1.0"/>
      <path d="M11.7 1.5 L11.0 0.5 Q10.05 -0.45 8.7 -1.0 L7.9 -1.3 6.2 -2.1 Q4.0 -3.55 2.1 -4.2 L0.4 -4.3 -2.5 -4.2 Q-4.85 -3.3 -6.4 -2.0 -6.9 -1.6 -8.8 -0.9 -10.5 -0.5 -12.5 2.0 L-14.0 4.3 Q-14.8 5.8 -15.3 8.5 L-15.6 10.2 Q-15.95 13.45 -15.7 16.3 -15.4 20.05 -11.4 22.1 -9.5 23.15 -6.6 24.4 L-4.8 25.1 -0.7 26.3 0.7 26.7 8.7 23.7 10.2 22.75 11.8 21.95 13.45 20.7 Q14.05 20.2 14.5 19.1 L14.9 17.9 15.2 16.5 15.3 15.2 15.3 13.6 15.0 11.7 14.8 10.6 14.6 9.4 14.3 8.2 Q13.3 4.4 12.0 2.0" fill="none" stroke="#000000" stroke-linecap="round" stroke-linejoin="round" stroke-width="1.0"/>
      <path d="M-12.8 9.8 L-12.3 10.7 -11.0 13.1 -8.4 17.4 Q-7.85 17.95 -7.6 18.6 L-6.8 19.6 -5.2 21.5 -2.9 23.4 -1.4 24.2 -0.1 24.7 0.5 24.4 Q1.45 24.25 2.2 23.5 L3.7 22.3 5.1 21.0 6.5 19.6 8.1 17.2 9.1 15.6 11.4 11.0 12.1 9.6" fill="none" stroke="#a8a8a8" stroke-linecap="round" stroke-linejoin="round" stroke-width="1.0"/>
      <path d="M8.7 6.4 L10.0 2.0 Q11.9 2.45 12.8 3.2 L14.0 7.2 8.7 6.4" fill="#762514" fill-rule="evenodd" stroke="none"/>
      <path d="M6.3 4.0 L5.6 6.0 3.9 5.9 Q4.45 4.35 5.4 2.7 5.8 2.15 5.8 1.4 L7.3 1.6 Q6.55 2.95 6.3 4.0" fill="#bc2e1f" fill-rule="evenodd" stroke="none"/>
      <path d="M7.3 1.6 L8.4 1.7 8.2 2.8 7.7 4.0 6.9 6.1 5.6 6.0 6.3 4.0 Q6.55 2.95 7.3 1.6" fill="#ff3d2b" fill-rule="evenodd" stroke="none"/>
      <path d="M8.2 2.8 L8.4 1.7 10.0 2.0 8.7 6.4 6.9 6.1 7.7 4.0 8.2 2.8" fill="#bc2e1f" fill-rule="evenodd" stroke="none"/>
      <path d="M5.8 1.4 Q5.8 2.15 5.4 2.7 4.45 4.35 3.9 5.9 L-0.4 5.7 -7.8 6.3 -7.8 6.2 Q-7.2 3.4 -5.6 1.4 L-0.7 1.2 -0.4 1.2 5.8 1.4" fill="#ff3d2b" fill-rule="evenodd" stroke="none"/>
      <path d="M-7.1 1.6 Q-7.1 2.05 -7.5 2.6 L-8.0 3.4 Q-8.8 4.85 -8.8 6.5 L-9.5 6.6 -10.2 6.8 -10.1 5.8 Q-9.6 3.35 -8.4 1.8 L-7.1 1.6" fill="#ff3d2b" fill-rule="evenodd" stroke="none"/>
      <path d="M-5.6 1.4 Q-7.2 3.4 -7.8 6.2 L-7.8 6.3 -8.8 6.5 Q-8.8 4.85 -8.0 3.4 L-7.5 2.6 Q-7.1 2.05 -7.1 1.6 L-5.6 1.4" fill="#bc2e1f" fill-rule="evenodd" stroke="none"/>
      <path d="M-10.1 5.8 L-10.2 6.8 -12.4 7.2 Q-11.65 5.25 -11.4 3.9 L-11.0 2.9 -10.9 2.5 -8.4 1.8 Q-9.6 3.35 -10.1 5.8" fill="#bc2e1f" fill-rule="evenodd" stroke="none"/>
      <path d="M-13.4 3.9 L-10.9 2.5 -11.0 2.9 -11.4 3.9 Q-11.65 5.25 -12.4 7.2 L-15.0 7.8 -13.7 4.2 -13.7 4.1 -13.5 4.0 -13.4 3.9" fill="#762514" fill-rule="evenodd" stroke="none"/>
      <path d="M8.05 0.75 Q8.9 1.5 7.85 5.05 6.9 8.3 6.2 8.9 L-0.2 9.35 -6.75 8.9 Q-7.45 8.3 -8.4 5.05 -9.4 1.5 -8.55 0.75 -7.7 -0.05 -0.25 0.05 L8.05 0.75" fill="#040f16" fill-rule="evenodd" stroke="none"/>
      <path d="M7.15 1.55 Q7.5 2.15 6.65 4.85 L5.5 7.8 0.05 8.1 -5.85 7.9 Q-6.6 7.75 -7.35 4.75 -8.15 1.7 -7.5 1.3 L-0.6 0.75 Q6.6 0.75 7.15 1.55" fill="#7399a9" fill-rule="evenodd" stroke="none"/>
      <path d="M0.75 8.1 L1.2 6.5 2.7 6.1 4.3 4.45 3.9 6.75 Q3.25 7.8 2.4 8.05 L0.75 8.1" fill="#577380" fill-rule="evenodd" stroke="none"/>
      <path d="M3.3 7.6 Q4.8 6.7 5.15 5.75 5.5 4.9 5.95 4.75 6.4 4.55 6.3 5.55 6.15 7.55 5.5 7.8 L3.3 7.6" fill="#577380" fill-rule="evenodd" stroke="none"/>
      <path d="M0.25 4.9 Q1.15 5.55 1.15 6.4 0.85 8.65 -0.45 8.4 -5.25 7.65 -4.6 3.8 -3.9 0.0 1.15 0.5 0.0 1.0 -0.55 1.45 -2.15 2.45 -1.5 3.35 L0.25 4.9" fill="#0e1a1d" fill-rule="evenodd" stroke="none"/>
      <path d="M2.05 2.1 Q2.85 2.65 1.95 3.15 0.85 3.45 0.45 2.95 -0.1 2.4 0.65 1.85 1.25 1.5 2.05 2.1" fill="#0e1a1d" fill-rule="evenodd" stroke="none"/>
      <path d="M-3.1 6.55 Q-3.65 6.2 -2.65 5.5 -2.05 4.9 -1.15 5.7 -0.9 5.85 -0.85 6.35 -0.8 6.85 -1.15 7.1 -2.1 7.6 -3.1 6.55" fill="#7399a9" fill-rule="evenodd" stroke="none"/>
      <path d="M-7.6 3.65 L-7.85 2.5 Q-7.95 1.35 -7.3 1.15 L-2.8 0.7 -3.75 0.85 Q-4.15 0.9 -4.65 1.25 L-6.85 2.45 -7.6 3.65" fill="#dae8ee" fill-rule="evenodd" stroke="none"/>
      <path d="M1.7 8.25 Q4.35 7.2 4.45 4.9 4.5 3.45 3.5 2.0 L2.45 0.85 3.9 1.25 Q5.3 2.1 5.3 4.45 5.3 8.2 1.7 8.25" fill="#384248" fill-rule="evenodd" stroke="none"/>
      <path d="M0.0 4.15 L1.15 5.75 1.0 7.25 Q0.85 5.95 0.25 5.25 -1.25 4.2 -1.55 3.55 -2.85 0.75 1.2 0.7 -0.3 0.75 -1.0 2.2 -1.25 2.8 0.0 4.15" fill="#dae8ee" fill-rule="evenodd" stroke="none"/>
      <path d="M-2.65 5.4 L-2.65 5.75 Q-2.65 6.2 -0.8 6.65 -0.35 7.1 -1.8 7.1 -2.75 7.25 -3.1 6.8 -3.7 6.0 -2.65 5.4" fill="#dae8ee" fill-rule="evenodd" stroke="none"/>
      <path d="M3.75 1.1 L4.85 1.7 Q5.9 2.7 5.9 4.7 5.9 7.0 3.65 7.75 5.3 6.35 5.3 4.25 5.3 2.95 4.55 1.9 L3.75 1.1" fill="#dae8ee" fill-rule="evenodd" stroke="none"/>
      <path d="M-7.25 5.25 L-7.4 5.2 -7.6 4.1 -5.35 6.45 Q-4.05 7.65 -2.55 7.95 L-5.85 7.9 Q-6.35 7.85 -6.85 6.55 L-7.25 5.25" fill="#577380" fill-rule="evenodd" stroke="none"/>
    </g>
  </defs>
</svg>
